!!!!SEGMENT: pl-kk--kk-i-315--001_palestrina-giovanni-pierluigi-da--osculetur-me.krn
!!!cenid: 16xx:1097
!!!COM: Palestrina, Giovanni Pierluigi da
!!!COM-rismID: pe1904
!!!CDT: ~1525-1594/02/02
!!!CNT: Italian
!!!OTL: Osculetur me
!!!PDT:
!!!AGN: Sacred
!!!SMS-siglum: PL-Kk
!!!SMS-shelfmark: Kk.I.315
!!!SMS-shelfwork: 001 W
!!!SMS-variant:
!!!SMS-altvar:
!!!NIFC-rismSourceID: 1001146218
!!!NIFC-islandoraID: pl-kk:5289
!!!URL-pdf-islandora: https://repozytorium.nifc.pl/islandora/object/pl-kk%3A5289/datastream/PDF/view
!!!URL-scan: https://polish.musicsources.pl/pl/lokalizacje/galeria/rekopisy/5934 @EN{Scan on Polish Music Sources Website} @PL{Skany w portalu Dziedzictwo Muzyki Polskiej w otwartym dostępie}
!!!ONB-nifc: UWAGA: motety w zbiorze: 1. Osculetur me, 2. Trahe me post curremus, 3. Nigra sum sed formosa, 4. Vineam meam, 5. Si ignoras te o pulchra, 6. Pulchrae sunt genae tuae, 7. Fasciculus myrrhae, 8. Ecce tu pulcher es, 9. Tota pulchra es amica mea, 10. Vulnerasti cor meum, 11. Sicut lilium inter spinas, 12. Introduxit me rex, 13. Laeva ejus, 14. Vox dilecti mei
!!!AIN: 1 alto
!!!key:
**kern	**text
*Ialto	*
*I"[Altus]	*
*I'A	*
*clefC2	*
*k[b-]	*
*d:phr	*
*M2/1	*
*met(C|)	*
=1-	=1-
!LO:TX:a:t=P:problem=znaki B- b-	!
!LO:TX:a:t=1.	!
1.g	O-
2g\	-scu-
=2-	=2-
1b-	-le-
1a	-tur
=3-	=3-
!LO:TX:a:t=P:global:problem=rozdzielacz słów	!
2g,<\	me
2.g\	o-
4g\	-scu-
2g,<\	-lo
=4-	=4-
2f\	o-
2d,</	-ris
4e\	tu-
4f\	.
1g\	.
=5-	=5-
.	.
4f\	.
4e\	.
2.f\	.
*custos:a	*
4g\	.
!LO:LB:g=original	!
=6-	=6-
4a\	.
4b-\	.
2.a\	.
4g\	.
1g\	.
=7-	=7-
.	.
2f\	.
2g,<\	-i
2d/	o-
=8-	=8-
2B-/	-ris
2.b-\	tu-
4a\	.
4f\	.
4g\	.
=9-	=9-
2a\	.
2f\	.
0g	-i
=10-	=10-
.	.
0r	.
=11-	=11-
.	.
1r	.
=12-	=12-
1.g	o-
2g\	-scu-
=13-	=13-
1b-	-le-
1a	-tur
=14-	=14-
2g,<\	me
!LO:LB:g=original	!
2.g\	o-
4g\	-scu-
2g,<\	-lo
=15-	=15-
2f\	o-
2g\	-ris
1a	tu-
=16-	=16-
2d,</	-i
1b-	o-
2g\	-scu-
=17-	=17-
1a	-lo
0g	o-
=18-	=18-
.	.
2.g\	.
4f\	.
=19-	=19-
2e,</	-ris
2.g\	tu-
4f\	.
2f\	.
=20-	=20-
1g,<	-i
!LO:LB:g=original	!
2r	.
1g\	qui-
=21-	=21-
.	.
2g\	-a
2.a\	me-
4a\	-li-
=22-	=22-
2a\	-o-
2g,<\	-ra
4f\	sunt
4g\	.
4a\	.
4b-\	.
=23-	=23-
1cc	.
2r	.
2.f\	u-
=24-	=24-
.	.
4g\	-be-
2a,<\	-ra
1b-	tu-
=25-	=25-
2.a\	.
4g\	.
4f\	.
4e\	.
2f,<\	-a
!LO:LB:g=original	!
=26-	=26-
1g	Vi-
2a,<\	-no
1d/	qui-
=27-	=27-
.	.
2e,</	-a
2.f\	me-
4f\	-li-
=28-	=28-
2f\	-o-
2g\	-ra
2a,<\	sunt
2.f\	u-
=29-	=29-
.	.
4g\	-be-
2a,<\	-ra
2b-\	tu-
4a\	.
4g\	.
=30-	=30-
4a\	.
4b-\	.
2cc\	-a
1b-	vi-
=31-	=31-
1a,<	-no
!LO:LB:g=original	!
1f#X	fra-
=32-	=32-
2.g\	-gran-
4g\	-ti-
2g,<\	-a
2g\	un-
=33-	=33-
1g	-gven-
1g	-ti
=34-	=34-
1.a	op-
2a\	-ti-
=35-	=35-
1b-	-mi
1r	.
=36-	=36-
2r	.
1fny	o-
2f\	-le-
=37-	=37-
1f,<	-um
1g	ef-
=38-	=38-
1a	-fu-
!LO:LB:g=original	!
2g,<\	-sum
1cc\	No-
=39-	=39-
.	.
2b-,<\	-men
2a\	tu-
4g\	.
4f\	.
=40-	=40-
*lig	*
1g	.
1a	.
*Xlig	*
=41-	=41-
4g\	.
4a\	.
4b-\	.
4g\	.
1a	-um
=42-	=42-
0r	.
=43-	=43-
1r	.
2r	.
2a\	no-
=44-	=44-
!LO:N:acc=#	!
2bn\	-men
1cc	tu-
2b\	.
=45-	=45-
1cc	-um
2r	.
*custos:a	*
1a\	i-
=46-	=46-
.	.
!LO:LB:g=original	!
2a\	-de-
2a,<\	-o
2a\	a-
=47-	=47-
2a\	-do-
2f\	-le-
2g\	-scen-
2g\	-tu-
=48-	=48-
2a,<\	-le
1b-	di-
2a\	-le-
=49-	=49-
2g\	-xe-
2f\	-runt
*lig	*
1e	te
=50-	=50-
1d,<	.
*Xlig	*
1.b-	i-
=51-	=51-
.	.
2b-\	-de-
1b-,<	-o
!LO:LB:g=original	!
=52-	=52-
1a	a-
2.a\	-do-
4b-\	-le-
=53-	=53-
2cc\	-scen-
2g\	-tu-
1a	-le
=54-	=54-
1r	.
2r	.
2d/	a-
=55-	=55-
2g\	-do-
2g\	-le-
2.f\	-scen-
4e/	-tu-
=56-	=56-
2d,</	-le
1b-	i-
2b-\	-de-
=57-	=57-
2b-,<\	-o
!LO:PB:g=original	!
2f\	a-
2.b-\	-do-
4b-\	-le-
=58-	=58-
2a\	-scen-
2g\	-tu-
1f	-le
=59-	=59-
2r	.
1g	di-
2f\	-le-
=60-	=60-
2f/	-xe-
2d/	-runt
1d,<	te
=61-	=61-
1.b-	di-
2a\	-le-
=62-	=62-
2g\	-xe-
2f\	-runt
*lig	*
1e-X	te
=63-	=63-
1d	.
*Xlig	*
==	==
*-	*-
!!!RDF**kern: < = below
!!!ENC: Marta Lawrence
!!!END: 2021-03-28
!!!ENC: Krzysztof Stępień
!!!END: 2021-03-18
!!!YEC: Copyright 2022 Narodowy Instytut Fryderyka Chopina (https://polishscores.org)
!!!YEM: Licence CC BY 4.0 (https://creativecommons.org/licenses/by/4.0)
